X: 1
T: The Peeler's Jacket
R: reel
M: 4/4
L: 1/8
K: Gmaj
G2BG DGBG|FGAB c2Bc|dggf d2eg|fdcA BGAF|
G2BG DGBG|FGAB c2Bc|dggf d2eg|fdcA BG~G2:|
|:gagf d2ef|gfga bgaf|gagf d2eg|fdcA BGBd|
gagf d2ef|gfga bgaf|gbag fdeg|1 fdcA BG~G2:|2 fdcA BGAF||


Tune 1343	Setting 28610

